X: 15
T: Monaghan, The
Z: SamiC
S: https://thesession.org/tunes/67#setting49891
R: jig
M: 6/8
L: 1/8
K: Emin
|:BGE FGE|BGE FGA|BGE FGE|AFD FGA|
BGE FGE|BGE FGA|d^cd ABG|FDF AGF:|
|:EGB efg|fed edB|EGB dBG|FDF AGF|
EGB efg|fed edB|d^cd ABG|FDF AGF:|
|:g2e efe|gfg bge|g2e efe|fdf afd|
g2e efe|gfg bge|d^cd ABG|FDF AGF:|
|:EGB edB|dBG AFD|EGB dBG|FDF AGF|
EGB GBd|Beg efg|d^cd ABG|FDF AGF:|

